X:43
T:Coleford Jig, The
R:hp 32
Z:P J Headford
M:4/4
L:1/8
Q:1/4=140
K:D
|:.F2F2 DFA2|dAFD E2E2|DF((3ABc) d2df|edcB ABAG|
.F2F2 DFA2|dAFD. E2E2|DFAd cdec|d2d2 d4:|
|:Acef gfge|defg a2f2|g2 ((3efg) f2 ((3def)|edcB ABAG|
.F2F2 DFA2|dAFD. E2E2|DFAd cdec|d2d2 d4:|]

